X:1
T:Title
%%score { ( 1 4 ) | ( 2 3 5 ) }
L:1/8
Q:1/4=100
M:4/4
K:F
V:1 treble nm="Grand Piano"
V:4 treble 
V:2 bass 
V:3 bass 
V:5 bass 
V:1
 [CA]2 A>A B2 A2 | [CA]2 GA [B,G] .F3 | [DF]FED [A,C]F A2 | z4 G4 | [A,C]2 F>G [A,F] .E3 | %5
w: Ira~B.~Wilson * * * *|||||
 [B,C]2 G>A [B,G] .F3 | [DF]FED [A,C] A2 A | [DB]B A>G [A,F]4 | c2 c>d c2 A2 | F2 GA [EA]2 [EG]2 | %10
w: |||||
 [A,DF][A,DF][B,DG][DGB] [CFA]2 [B,EG]2[Q:1/4=97][Q:1/4=94][Q:1/4=91][Q:1/4=88][Q:1/4=84][Q:1/4=81][Q:1/4=78] | %11
w: |
 [A,F]6 z2 |] %12
w: |
V:2
 z2 C>C D2 C2 | z2 B,C z .A,3 | z DCB, z A, C2 | z2 z z/ =B,/ C2 z2 | z2 A,>B, z .G,3 | %5
 z2 B,>C z .A,3 | z DCB, z C2 C | z D C>B, F,,4 | [F,A,F]2 [F,A,F]>[F,B,F] [F,A,F]2 [F,CF]2 | %9
 [A,C]2 [G,CE][F,CF] [C,C]2 [B,,B,]2 | D,C,B,,G,, C,2 C,2 | F,6 z2 |] %12
V:3
 F,,8 | C,4 F,,4 | B,,4 F,,4 | z2 F,2 [C,E,]4 | F,,4 C,4 | C,4 F,,4 | B,,4 C,4 | C,4 z4 | x8 | x8 | %10
 x8 | x8 |] %12
V:4
 x8 | x8 | x8 | [=B,G]2 [B,D]>A z2 _B,2 | x8 | x8 | x8 | x8 | x8 | x8 | x8 | x8 |] %12
V:5
 x8 | x8 | x8 | G,,4 z4 | x8 | x8 | x8 | x8 | x8 | x8 | x8 | x8 |] %12

